assets/images/icons/src/ellipsis-v.svg

<?xml version="1.0" encoding="utf-8"?>
<!-- Generated by IcoMoon.io -->
<!DOCTYPE svg PUBLIC "-//W3C//DTD SVG 1.1//EN" "http://www.w3.org/Graphics/SVG/1.1/DTD/svg11.dtd">
<svg version="1.1" xmlns="http://www.w3.org/2000/svg" xmlns:xlink="http://www.w3.org/1999/xlink" width="3" height="14" viewBox="0 0 3 14">
<path fill="#444444" d="M3 9.75v1.5q0 0.312-0.219 0.531t-0.531 0.219h-1.5q-0.312 0-0.531-0.219t-0.219-0.531v-1.5q0-0.312 0.219-0.531t0.531-0.219h1.5q0.312 0 0.531 0.219t0.219 0.531zM3 5.75v1.5q0 0.312-0.219 0.531t-0.531 0.219h-1.5q-0.312 0-0.531-0.219t-0.219-0.531v-1.5q0-0.312 0.219-0.531t0.531-0.219h1.5q0.312 0 0.531 0.219t0.219 0.531zM3 1.75v1.5q0 0.312-0.219 0.531t-0.531 0.219h-1.5q-0.312 0-0.531-0.219t-0.219-0.531v-1.5q0-0.312 0.219-0.531t0.531-0.219h1.5q0.312 0 0.531 0.219t0.219 0.531z"></path>
</svg>

<svg xmlns="http://www.w3.org/2000/svg" width="3" height="14" viewBox="0 0 3 14"><path fill="#444" d="M3 9.75v1.5q0 .312-.219.531T2.25 12H.75q-.312 0-.531-.219T0 11.25v-1.5q0-.312.219-.531T.75 9h1.5q.312 0 .531.219T3 9.75zm0-4v1.5q0 .312-.219.531T2.25 8H.75q-.312 0-.531-.219T0 7.25v-1.5q0-.312.219-.531T.75 5h1.5q.312 0 .531.219T3 5.75zm0-4v1.5q0 .312-.219.531T2.25 4H.75q-.312 0-.531-.219T0 3.25v-1.5q0-.312.219-.531T.75 1h1.5q.312 0 .531.219T3 1.75z"/></svg>
